img/image/design/quotes-square.svg

<svg xmlns="http://www.w3.org/2000/svg" fill="none" viewBox="0.6 0.88 14 11.78">
<path d="M9.22624 0.87528H13.4982C13.8076 0.87528 14.0689 0.981947 14.2822 1.19528C14.4956 1.40861 14.6022 1.66995 14.6022 1.97928V5.85128C14.6022 7.68595 14.2182 9.13128 13.4502 10.1873C12.8316 11.0513 11.8556 11.8353 10.5222 12.5393C10.2556 12.6779 9.97291 12.6939 9.67424 12.5873C9.37557 12.4913 9.15691 12.3046 9.01824 12.0273L8.65024 11.3233C8.51157 11.0673 8.48491 10.7953 8.57024 10.5073C8.66624 10.2193 8.84224 10.0006 9.09824 9.85128C9.72757 9.48861 10.1916 9.12595 10.4902 8.76328C10.7249 8.47528 10.8956 8.18195 11.0022 7.88328C11.0662 7.71261 11.0662 7.55261 11.0022 7.40328C10.9382 7.24328 10.8262 7.11528 10.6662 7.01928C10.5062 6.92328 10.3249 6.87528 10.1222 6.87528H9.22624C8.91691 6.87528 8.65557 6.76861 8.44224 6.55528C8.22891 6.34195 8.12224 6.08595 8.12224 5.78728V1.97928C8.12224 1.66995 8.22891 1.40861 8.44224 1.19528C8.66624 0.981947 8.92757 0.87528 9.22624 0.87528ZM1.69024 0.87528H5.96224C6.27157 0.87528 6.53291 0.981947 6.74624 1.19528C6.95957 1.40861 7.06624 1.66995 7.06624 1.97928V5.85128C7.06624 7.68595 6.68224 9.13128 5.91424 10.1873C5.29557 11.0513 4.31957 11.8353 2.98624 12.5393C2.71957 12.6779 2.43691 12.6939 2.13824 12.5873C1.85024 12.4913 1.63157 12.3046 1.48224 12.0273L1.11424 11.3233C0.975572 11.0673 0.948905 10.7953 1.03424 10.5073C1.13024 10.2193 1.30624 10.0006 1.56224 9.85128C2.21291 9.47795 2.67691 9.11528 2.95424 8.76328C3.18891 8.47528 3.35957 8.18195 3.46624 7.88328C3.53024 7.71261 3.53024 7.55261 3.46624 7.40328C3.40224 7.24328 3.29024 7.11528 3.13024 7.01928C2.97024 6.92328 2.78891 6.87528 2.58624 6.87528H1.69024C1.39157 6.87528 1.13557 6.76861 0.922238 6.55528C0.708905 6.34195 0.602238 6.08595 0.602238 5.78728V1.97928C0.602238 1.66995 0.708905 1.40861 0.922238 1.19528C1.13557 0.981947 1.39157 0.87528 1.69024 0.87528Z" fill="white"/>
</svg>

<svg xmlns="http://www.w3.org/2000/svg" fill="none" viewBox="0.6 0.88 14 11.78"><path d="M9.226.875h4.272c.31 0 .57.107.784.32.214.214.32.475.32.784v3.872c0 1.835-.384 3.28-1.152 4.336-.618.864-1.594 1.648-2.928 2.352-.266.139-.55.155-.848.048a1.071 1.071 0 0 1-.656-.56l-.368-.704a1.034 1.034 0 0 1-.08-.816c.096-.288.272-.506.528-.656.63-.362 1.094-.725 1.392-1.088.235-.288.406-.581.512-.88a.623.623 0 0 0 0-.48.78.78 0 0 0-.336-.384 1.037 1.037 0 0 0-.544-.144h-.896c-.31 0-.57-.106-.784-.32a1.047 1.047 0 0 1-.32-.768V1.98c0-.31.107-.57.32-.784.224-.213.486-.32.784-.32Zm-7.536 0h4.272c.31 0 .57.107.784.32.214.214.32.475.32.784v3.872c0 1.835-.384 3.28-1.152 4.336-.618.864-1.594 1.648-2.928 2.352-.266.139-.55.155-.848.048a1.13 1.13 0 0 1-.656-.56l-.368-.704a1.034 1.034 0 0 1-.08-.816c.096-.288.272-.506.528-.656.65-.373 1.115-.736 1.392-1.088.235-.288.406-.581.512-.88a.623.623 0 0 0 0-.48.78.78 0 0 0-.336-.384 1.037 1.037 0 0 0-.544-.144H1.69c-.298 0-.554-.106-.768-.32a1.047 1.047 0 0 1-.32-.768V1.98c0-.31.107-.57.32-.784.214-.213.47-.32.768-.32Z" fill="#fff"/></svg>
